dist/svgs/carbon-icons/svg/schematics.svg

<svg width="24px" height="24px" viewBox="0 0 24 24" version="1.1" stroke-width="1" fill-rule="evenodd"
  xmlns="http://www.w3.org/2000/svg"
  xmlns:xlink="http://www.w3.org/1999/xlink">
  <!-- Generator: Sketch 43.2 (39069) - http://www.bohemiancoding.com/sketch -->
  <desc>Created with Sketch.</desc>
  <defs></defs>
  <path d="M22.2588235,11.5764706 L19.2,9.69411765 C21.0823529,8.61176471 22.7294118,7.67058824 22.8705882,7.57647059 C23.0117647,7.48235294 23.1058824,7.34117647 23.1058824,7.15294118 C23.1058824,6.96470588 23.0117647,6.82352941 22.8705882,6.72941176 C19.9529412,4.94117647 13.0823529,0.752941176 12.9882353,0.705882353 C12.9411765,0.658823529 12.9411765,0.658823529 12.8941176,0.658823529 C12.4705882,0.423529412 12,0.423529412 11.5294118,0.564705882 C11.1529412,0.705882353 10.8235294,0.894117647 10.5411765,1.08235294 C10.4,1.12941176 4.42352941,4.84705882 2.44705882,6.07058824 L1.78823529,6.49411765 C1.6,6.58823529 1.41176471,6.68235294 1.17647059,6.91764706 C0.329411765,7.85882353 0.282352941,9.6 0.658823529,10.9176471 C0.847058824,11.4352941 1.08235294,11.9529412 1.36470588,12.3294118 C1.74117647,12.7529412 2.11764706,13.0352941 2.54117647,13.2705882 L2.63529412,13.3176471 C2.91764706,13.5058824 11.5764706,18.4 11.9529412,18.5882353 C12,18.6352941 12.6117647,19.0117647 12.6117647,20.4705882 C12.6117647,20.7529412 12.8,20.9411765 13.0823529,20.9411765 C13.3647059,20.9411765 13.5529412,20.7529412 13.5529412,20.4705882 C13.5529412,18.4470588 12.5176471,17.8352941 12.4235294,17.7882353 C9.31764706,16.0470588 3.34117647,12.6588235 3.10588235,12.5176471 L3.01176471,12.4705882 C2.68235294,12.2352941 2.35294118,12.0470588 2.16470588,11.7176471 C1.92941176,11.4352941 1.78823529,11.0588235 1.64705882,10.6352941 C1.36470588,9.6 1.36470588,8.18823529 1.97647059,7.52941176 C2.07058824,7.43529412 2.16470588,7.38823529 2.30588235,7.29411765 L2.96470588,6.87058824 C10.0705882,2.49411765 11.0117647,1.88235294 11.0588235,1.88235294 C11.2941176,1.69411765 11.5294118,1.55294118 11.8117647,1.45882353 C12.0941176,1.36470588 12.2823529,1.41176471 12.5176471,1.50588235 L12.5647059,1.50588235 C13.0352941,1.83529412 18.3529412,5.03529412 21.7411765,7.05882353 C19.4823529,8.37647059 12.4235294,12.3764706 12.1882353,12.5176471 C12,12.6117647 11.8117647,12.5647059 11.7176471,12.5176471 C11.4823529,12.3764706 5.69411765,9.03529412 3.48235294,7.76470588 C3.24705882,7.67058824 2.96470588,7.71764706 2.82352941,7.95294118 C2.68235294,8.14117647 2.77647059,8.47058824 2.96470588,8.56470588 C3.29411765,8.75294118 10.9647059,13.1764706 11.2941176,13.4117647 C11.7176471,13.6470588 12.2352941,13.6470588 12.6588235,13.4117647 C12.8470588,13.3176471 15.6705882,11.6705882 18.3058824,10.1647059 L21.8352941,12.3294118 C21.9294118,12.3764706 23.1058824,13.0352941 23.1058824,14.5882353 C23.1058824,16.2823529 22.6352941,16.6117647 21.8823529,17.2235294 C21.8352941,17.2235294 20.6588235,17.9764706 13.4117647,22.4470588 L13.0823529,22.6352941 C12.7529412,22.8705882 12.2352941,23.1529412 12,23.0588235 C11.7647059,22.9176471 7.95294118,20.5647059 1.97647059,16.9411765 L3.57647059,15.9529412 C3.76470588,15.8117647 3.85882353,15.5294118 3.71764706,15.2941176 C3.57647059,15.0588235 3.29411765,14.9647059 3.05882353,15.1058824 L0.8,16.4705882 C0.658823529,16.5647059 0.564705882,16.7529412 0.564705882,16.8941176 C0.564705882,17.0823529 0.658823529,17.2235294 0.8,17.3176471 L0.941176471,17.4117647 C11.3411765,23.7647059 11.5294118,23.8588235 11.5764706,23.9058824 C11.7176471,24 11.9058824,24 12.0941176,24 C12.6117647,24 13.1764706,23.7176471 13.5529412,23.5294118 L13.8823529,23.3411765 C22.3529412,18.0705882 22.3529412,18.0705882 22.4,18.0705882 C23.2470588,17.4117647 24,16.8470588 24,14.6823529 C24,12.5647059 22.4,11.6705882 22.2588235,11.5764706 L22.2588235,11.5764706 Z" id="Shape"></path>
  <path d="M5.69411765,7.24705882 C5.74117647,7.48235294 5.97647059,7.67058824 6.25882353,7.62352941 L10.8705882,6.87058824 L9.83529412,9.45882353 C9.74117647,9.69411765 9.88235294,9.97647059 10.1176471,10.0705882 C10.1647059,10.1176471 10.2588235,10.1176471 10.3058824,10.1176471 C10.4941176,10.1176471 10.6823529,9.97647059 10.7294118,9.83529412 L12.4235294,5.64705882 L6.07058824,6.68235294 C5.83529412,6.72941176 5.64705882,7.01176471 5.69411765,7.24705882 L5.69411765,7.24705882 Z M18.1647059,6.16470588 C18.0235294,5.97647059 17.7411765,5.88235294 17.5058824,6.02352941 L14.4941176,7.85882353 C14.3058824,8 14.2117647,8.28235294 14.3529412,8.51764706 C14.4,8.61176471 14.4941176,8.65882353 14.5882353,8.70588235 C14.7294118,8.75294118 14.9176471,8.70588235 15.0117647,8.65882353 L18.0235294,6.82352941 C18.2117647,6.68235294 18.3058824,6.4 18.1647059,6.16470588 L18.1647059,6.16470588 Z" id="Shape"></path>
</svg>

<svg xmlns="http://www.w3.org/2000/svg" fill-rule="evenodd" viewBox="0 0 24 24"><path d="M22.259 11.576L19.2 9.694c1.882-1.082 3.53-2.023 3.67-2.118a.494.494 0 00.236-.423.494.494 0 00-.235-.424A2472.813 2472.813 0 0012.988.706c-.047-.047-.047-.047-.094-.047C12.471.424 12 .424 11.53.565c-.376.14-.705.33-.988.517-.141.047-6.117 3.765-8.094 4.989l-.659.423a2.054 2.054 0 00-.612.424c-.847.94-.894 2.682-.517 4 .188.517.423 1.035.706 1.411.376.424.753.706 1.176.942l.094.047c.283.188 8.941 5.082 9.318 5.27.047.047.659.424.659 1.883 0 .282.188.47.47.47.283 0 .47-.188.47-.47 0-2.024-1.034-2.636-1.128-2.683-3.106-1.74-9.083-5.13-9.318-5.27l-.094-.047c-.33-.236-.66-.424-.847-.753-.236-.283-.377-.66-.518-1.083-.282-1.035-.282-2.447.33-3.106.094-.094.188-.14.329-.235l.659-.423c7.106-4.377 8.047-4.989 8.094-4.989.235-.188.47-.33.753-.423.282-.094.47-.047.706.047h.047c.47.33 5.788 3.53 9.176 5.553-2.259 1.317-9.317 5.317-9.553 5.459a.539.539 0 01-.47 0c-.236-.142-6.024-3.483-8.236-4.753-.235-.094-.517-.047-.658.188-.142.188-.048.518.14.612.33.188 8 4.611 8.33 4.847a1.41 1.41 0 001.365 0c.188-.094 3.012-1.741 5.647-3.247l3.53 2.164c.093.047 1.27.706 1.27 2.26 0 1.693-.47 2.023-1.224 2.635-.047 0-1.223.752-8.47 5.223l-.33.188c-.33.236-.847.518-1.082.424-.235-.141-4.047-2.494-10.024-6.118l1.6-.988a.507.507 0 00.142-.659c-.142-.235-.424-.33-.66-.188L.8 16.47a.562.562 0 00-.235.423c0 .188.094.33.235.424l.141.094c10.4 6.353 10.588 6.447 10.635 6.494.142.094.33.094.518.094.518 0 1.082-.282 1.459-.47l.33-.189c8.47-5.27 8.47-5.27 8.517-5.27.847-.66 1.6-1.224 1.6-3.389 0-2.117-1.6-3.011-1.741-3.106z"/><path d="M5.694 7.247a.488.488 0 00.565.377l4.612-.753-1.036 2.588c-.094.235.047.517.283.612.047.047.14.047.188.047.188 0 .376-.142.423-.283l1.695-4.188L6.07 6.682c-.236.047-.424.33-.377.565zm12.47-1.082a.507.507 0 00-.658-.141l-3.012 1.835a.507.507 0 00-.141.659c.047.094.141.14.235.188.141.047.33 0 .424-.047l3.012-1.835a.507.507 0 00.14-.66z"/></svg>
